src/assets/images/logo.svg

<svg viewBox="0 0 111 30" version="1.1" xmlns="http://www.w3.org/2000/svg" xmlns:xlink="http://www.w3.org/1999/xlink" aria-hidden="true" role="img" class="default-ltr-cache-1d568uk ev1dnif2"><g><path d="M105.06233,14.2806261 L110.999156,30 C109.249227,29.7497422 107.500234,29.4366857 105.718437,29.1554972 L102.374168,20.4686475 L98.9371075,28.4375293 C97.2499766,28.1563408 95.5928391,28.061674 93.9057081,27.8432843 L99.9372012,14.0931671 L94.4680851,-5.68434189e-14 L99.5313525,-5.68434189e-14 L102.593495,7.87421502 L105.874965,-5.68434189e-14 L110.999156,-5.68434189e-14 L105.06233,14.2806261 Z M90.4686475,-5.68434189e-14 L85.8749649,-5.68434189e-14 L85.8749649,27.2499766 C87.3746368,27.3437061 88.9371075,27.4055675 90.4686475,27.5930265 L90.4686475,-5.68434189e-14 Z M81.9055207,26.93692 C77.7186241,26.6557316 73.5307901,26.4064111 69.250164,26.3117443 L69.250164,-5.68434189e-14 L73.9366389,-5.68434189e-14 L73.9366389,21.8745899 C76.6248008,21.9373887 79.3120255,22.1557784 81.9055207,22.2804387 L81.9055207,26.93692 Z M64.2496954,10.6561065 L64.2496954,15.3435186 L57.8442216,15.3435186 L57.8442216,25.9996251 L53.2186709,25.9996251 L53.2186709,-5.68434189e-14 L66.3436123,-5.68434189e-14 L66.3436123,4.68741213 L57.8442216,4.68741213 L57.8442216,10.6561065 L64.2496954,10.6561065 Z M45.3435186,4.68741213 L45.3435186,26.2498828 C43.7810479,26.2498828 42.1876465,26.2498828 40.6561065,26.3117443 L40.6561065,4.68741213 L35.8121661,4.68741213 L35.8121661,-5.68434189e-14 L50.2183897,-5.68434189e-14 L50.2183897,4.68741213 L45.3435186,4.68741213 Z M30.749836,15.5928391 C28.687787,15.5928391 26.2498828,15.5928391 24.4999531,15.6875059 L24.4999531,22.6562939 C27.2499766,22.4678976 30,22.2495079 32.7809542,22.1557784 L32.7809542,26.6557316 L19.812541,27.6876933 L19.812541,-5.68434189e-14 L32.7809542,-5.68434189e-14 L32.7809542,4.68741213 L24.4999531,4.68741213 L24.4999531,10.9991564 C26.3126816,10.9991564 29.0936358,10.9054269 30.749836,10.9054269 L30.749836,15.5928391 Z M4.78114163,12.9684132 L4.78114163,29.3429562 C3.09401069,29.5313525 1.59340144,29.7497422 0,30 L0,-5.68434189e-14 L4.4690224,-5.68434189e-14 L10.562377,17.0315868 L10.562377,-5.68434189e-14 L15.2497891,-5.68434189e-14 L15.2497891,28.061674 C13.5935889,28.3437998 11.906458,28.4375293 10.1246602,28.6868498 L4.78114163,12.9684132 Z"></path></g></svg>

<?xml version="1.0" encoding="utf-8"?>
<!-- Generator: Adobe Illustrator 28.2.0, SVG Export Plug-In . SVG Version: 6.00 Build 0)  -->
<svg version="1.1" id="레이어_1" xmlns="http://www.w3.org/2000/svg" xmlns:xlink="http://www.w3.org/1999/xlink" x="0px"
	 y="0px" viewBox="0 0 111 30" style="enable-background:new 0 0 111 30;" xml:space="preserve">
<g>
	<path d="M105.06,14.28L111,30c-1.75-0.25-3.5-0.56-5.28-0.84l-3.34-8.69l-3.44,7.97c-1.69-0.28-3.34-0.38-5.03-0.59l6.03-13.75
		L94.47,0h5.06l3.06,7.87L105.87,0H111L105.06,14.28z M90.47,0h-4.59v27.25c1.5,0.09,3.06,0.16,4.59,0.34V0z M81.91,26.94
		c-4.19-0.28-8.37-0.53-12.66-0.63V0h4.69v21.87c2.69,0.06,5.38,0.28,7.97,0.41V26.94z M64.25,10.66v4.69h-6.41V26h-4.63V0h13.12
		v4.69h-8.5v5.97H64.25z M43.34,4.69v21.56c-1.56,0-3.16,0-4.69,0.06V4.69h-4.84V0h14.41v4.69H43.34z M4.78,12.97v16.37
		C3.09,29.53,1.59,29.75,0,30V0h4.47l6.09,17.03V0h4.69v28.06c-1.66,0.28-3.34,0.38-5.13,0.63L4.78,12.97z M23.46,27.59
		c1.53-0.19,3.09-0.25,4.59-0.34V0h-4.59V27.59z"/>
</g>
</svg>
